!!!OTL: Graf und Nonne (Die Nonne) Ich stand auf hohen Felsen
!!!ARE: Europa, Osteuropa, Ungarn
!!!YOR: 8, S. 287
!!    ???? aufgezeichnet
!!!SCT: Q01555
!!!YEM: Copyright 1995, estate of Helmut Schaffrath.
**kern
*ICvox
*Ivox
!! Mixed meters:  6/8; 9/8
*M9/8
*k[b-e-]
*g:
{8fn
=1
4b-
8b-
4a
8a
=2
4.g
4fn}
{8fn
=3
4dd
8dd
8.dd
16dd
8dd
8cc
8dd
8ee-
=4
*M6/8
4.dd
4r}
{8dd
=5
4gg
8dd
8ee-
8dd
8cc
=6
4dd
8ee-
4dd}
{8cc
=7
8b-
8b-
8b-
4a
8dd
=8
4.g
4r}
==
!!!AGN: Ballade, Standesunterschied, vergebliche Werbung, Liebe, Klage
!! Taktart in Taktwechsel geaendert.
!!!ONB: ESAC (Essen Associative Code) Database: BALLADE
!!!AMT: irregular
!!!AIN: vox
!!!EED: Helmut Schaffrath
!!!EEV: 1.0
*-
